src/assets/icons/ico-zoom.svg

<svg width="24" height="24" viewBox="0 0 24 24" fill="none" xmlns="http://www.w3.org/2000/svg">
<path fill-rule="evenodd" clip-rule="evenodd" d="M2.13441 11.4634C2.13441 6.57367 6.09833 2.60976 10.9881 2.60976C15.8778 2.60976 19.8417 6.57367 19.8417 11.4634C19.8417 16.3532 15.8778 20.3171 10.9881 20.3171C6.09833 20.3171 2.13441 16.3532 2.13441 11.4634ZM10.9881 1C5.20929 1 0.524658 5.68463 0.524658 11.4634C0.524658 17.2422 5.20929 21.9268 10.9881 21.9268C16.7669 21.9268 21.4515 17.2422 21.4515 11.4634C21.4515 5.68463 16.7669 1 10.9881 1ZM20.1426 19.4796C19.8282 19.1653 19.3186 19.1653 19.0043 19.4796C18.69 19.794 18.69 20.3036 19.0043 20.6179L21.1506 22.7643C21.465 23.0786 21.9746 23.0786 22.2889 22.7643C22.6032 22.4499 22.6032 21.9403 22.2889 21.626L20.1426 19.4796Z" fill="currentColor"/>
<path d="M14.9332 10.7373H11.6882V7.49222C11.6882 7.05498 11.3339 6.70068 10.8966 6.70068C10.4594 6.70068 10.1051 7.05498 10.1051 7.49222V10.7373H6.8599C6.42265 10.7373 6.06836 11.0916 6.06836 11.5288C6.06836 11.9661 6.42265 12.3204 6.8599 12.3204H10.105V15.5656C10.105 16.0028 10.4593 16.3571 10.8965 16.3571C11.3338 16.3571 11.6881 16.0028 11.6881 15.5656V12.3204H14.9331C15.3704 12.3204 15.7247 11.9661 15.7247 11.5288C15.7247 11.0916 15.3704 10.7373 14.9332 10.7373Z" fill="currentColor"/>
</svg>

<svg width="24" height="24" fill="none" xmlns="http://www.w3.org/2000/svg"><path fill-rule="evenodd" clip-rule="evenodd" d="M2.1344 11.4634c0-4.8897 3.964-8.8536 8.8537-8.8536 4.8897 0 8.8536 3.9639 8.8536 8.8536 0 4.8898-3.9639 8.8537-8.8536 8.8537-4.8898 0-8.8537-3.9639-8.8537-8.8537ZM10.9881 1C5.2093 1 .5247 5.6846.5247 11.4634S5.2093 21.9268 10.988 21.9268s10.4634-4.6846 10.4634-10.4634S16.7669 1 10.9881 1Zm9.1545 18.4796a.805.805 0 0 0-1.1383 1.1383l2.1463 2.1464a.805.805 0 0 0 1.1383-1.1383l-2.1463-2.1464Z" fill="currentColor"/><path d="M14.9332 10.7373h-3.245v-3.245a.7914.7914 0 0 0-.7916-.7916.7914.7914 0 0 0-.7915.7915v3.2451H6.8599a.7914.7914 0 0 0-.7915.7915c0 .4373.3543.7916.7915.7916h3.2451v3.2452c0 .4372.3543.7915.7915.7915a.7914.7914 0 0 0 .7916-.7915v-3.2452h3.245a.7915.7915 0 0 0 .7916-.7916.7914.7914 0 0 0-.7915-.7915Z" fill="currentColor"/></svg>
